apps/trade/public/tokens/ltc.svg

<svg width="24" height="24" viewBox="0 0 24 24" fill="none" xmlns="http://www.w3.org/2000/svg">
<rect width="24" height="24" rx="12" fill="#3E5C98"/>
<path d="M10.6952 17.0859L11.9256 12.8825L13.7945 12.2786L14.2445 10.6918L12.3911 11.2905L14.5231 4H11.159L8.61517 12.5105L6.57493 13.1681L6.125 14.7549L8.13929 14.1043L6.37592 20H16.9734L17.875 17.0859H10.6952Z" fill="white"/>
</svg>

<svg width="24" height="24" fill="none" xmlns="http://www.w3.org/2000/svg">
    <rect width="24" height="24" rx="12" fill="#3E5C98"/>
    <path d="m10.695 17.086 1.23-4.203 1.87-.604.45-1.587-1.854.598L14.523 4H11.16l-2.544 8.51-2.04.658-.45 1.587 2.014-.65L6.376 20h10.597l.902-2.914h-7.18Z" fill="#fff"/>
</svg>
